lib/svgs/indent.svg

<?xml version="1.0" encoding="UTF-8" standalone="no"?>
<svg width="20px" height="20px" viewBox="0 0 20 20" version="1.1" xmlns="http://www.w3.org/2000/svg" xmlns:xlink="http://www.w3.org/1999/xlink">
    <defs></defs>
    <g id="Icons" stroke="none" stroke-width="1" fill="none" fill-rule="evenodd">
        <g id="Web" transform="translate(-481.000000, -1376.000000)" fill="#000000">
            <g id="editor/indent" transform="translate(481.000000, 1376.000000)">
                <path d="M16.6000061,14.6363636 L3.6000061,14.6363636 C3.26863525,14.6363636 3.0000061,14.9049928 3.0000061,15.2363636 C3.0000061,15.5677345 3.26863525,15.8363636 3.6000061,15.8363636 L16.6000061,15.8363636 C16.931377,15.8363636 17.2000061,15.5677345 17.2000061,15.2363636 C17.2000061,14.9049928 16.931377,14.6363636 16.6000061,14.6363636 M16.6000061,11.0909091 L13.0545516,11.0909091 C12.7231807,11.0909091 12.4545516,11.3595382 12.4545516,11.6909091 C12.4545516,12.0222799 12.7231807,12.2909091 13.0545516,12.2909091 L16.6000061,12.2909091 C16.931377,12.2909091 17.2000061,12.0222799 17.2000061,11.6909091 C17.2000061,11.3595382 16.931377,11.0909091 16.6000061,11.0909091 M8.71512043,10.5181818 L7.37574814,11.8575541 C7.14143356,12.0918687 7.14143356,12.4717677 7.37574814,12.7060823 C7.61006271,12.9403968 7.9899617,12.9403968 8.22427628,12.7060823 L10.5879126,10.3424459 C10.8222272,10.1081313 10.8222272,9.72823232 10.5879126,9.49391775 L8.22427628,7.13028139 C7.9899617,6.89596681 7.61006271,6.89596681 7.37574814,7.13028139 C7.14143356,7.36459596 7.14143356,7.74449495 7.37574814,7.97880952 L8.70436188,9.31818182 L3.6,9.31818182 C3.26862915,9.31818182 3,9.58681097 3,9.91818182 C3,10.2495527 3.26862915,10.5181818 3.6,10.5181818 L8.71512043,10.5181818 M16.6000061,7.54545455 L13.0545516,7.54545455 C12.7231807,7.54545455 12.4545516,7.8140837 12.4545516,8.14545455 C12.4545516,8.4768254 12.7231807,8.74545455 13.0545516,8.74545455 L16.6000061,8.74545455 C16.931377,8.74545455 17.2000061,8.4768254 17.2000061,8.14545455 C17.2000061,7.8140837 16.931377,7.54545455 16.6000061,7.54545455 M16.6,4 L3.6,4 C3.26862915,4 3,4.26862915 3,4.6 C3,4.93137085 3.26862915,5.2 3.6,5.2 L16.6,5.2 C16.9313708,5.2 17.2,4.93137085 17.2,4.6 C17.2,4.26862915 16.9313708,4 16.6,4" id="Shape"></path>
            </g>
        </g>
    </g>
</svg>

<svg xmlns="http://www.w3.org/2000/svg" viewBox="0 0 20 20">
    <path fill="#000" fill-rule="evenodd" d="M16.6 14.636h-13a.6.6 0 0 0 0 1.2h13a.6.6 0 1 0 0-1.2m0-3.545h-3.545a.6.6 0 1 0 0 1.2H16.6a.6.6 0 1 0 0-1.2m-7.885-.573l-1.34 1.34a.6.6 0 0 0 .85.848l2.363-2.364a.6.6 0 0 0 0-.848L8.224 7.13a.6.6 0 1 0-.848.849l1.328 1.34H3.6a.6.6 0 1 0 0 1.2h5.115M16.6 7.544h-3.545a.6.6 0 1 0 0 1.2H16.6a.6.6 0 1 0 0-1.2M16.6 4h-13a.6.6 0 1 0 0 1.2h13a.6.6 0 0 0 0-1.2"/>
</svg>
